X: 35815
T: Salterello
R: jig
M: 6/8
K: Cmajor
|:cBA GAB|cdB c2 G|ABc ABG|cBc d2e|cgf e2d|
cgf e2d|1 cBc A2e|Aee A3:|2 cBc ABc|dcB c3||
|:edc B2A|c2d e2d|cBc A2B|GAB c2G|ABc ABG|cBc d2e|
cgf e2d|cgf e2d|1 cBc A2e|Aee A3:|2 cBc ABc|dcB c3||
|:ede g2e|fed e2d|cBc A2B|GAB c2G|ABc ABG|cBc d2e|
cgf e2d|cgf e2d|1 cBc A2e|Aee A3:|2 cBc ABc|dcB c3||
|:ede g2c|ggc g3|ede g2e|fed e2d|
cBc A2B|GAB c2G|ABc ABG|cBc d2e|cgf e2d|
cgf e2d|1 cBc A2e|Aee A3:|2 cBc ABc|dcB c3||

